X: 7877
T: Con Carthy's Favourite
R: slide
M: 12/8
K: Bminor
|:f2e dcd B2A d2e|f2e dcd e3 e3|
B>A (3Bcd B>AF>G|1 A>Fd>F F>EE>A:|2 A>Fd>F F>EE>e||
|:f>ed>c B>AF>A|f>ed>f e>de2|
f>ed>c B>AF>G|1 A>Fd>F F>EE>e:|2 A>Fd>F F>EE>A||
B2A Bcd B2A F2G|1 A2F d2F F2E E2A:|2 A2F d2F F2E E2e||
|:f2e d2c B2A F2A|f2e d2f e2d e3|
f2e d2c B2A F2G|1 A2F d2F F2E E2e:|2 A2F d2F F2E E2A||

